!!!!SEGMENT: pl-gd--ee-2628--007-013_stabile-annibale--sacrarum-modulationum-iuste-et-piae-a-6.krn
!!!cenid: 15xx:1102
!!!COM: Stabile, Annibale
!!!COM-rismID: pe30009662
!!!CDT: ~1535-1595/04
!!!CNT: Italian
!!!GTL: Sacrarum modulationum
!!!OTL: Iuste et piae a 6
!!!OMV: 013
!!!PDT: 1585
!!!AGN:
!!!YEC: Copyright 2022 Narodowy Instytut Fryderyka Chopina (https://polishscores.org)
!!!YEM: License CC-BY-4.0 (https://creativecommons.org/licenses/by/4.0)
!!!SMS-siglum: PL-GD
!!!SMS-shelfmark: Ee 2628
!!!SMS-shelfwork: 007-013 G
!!!SMS-variant:
!!!SMS-altvar:
!!!NIFC-rismSourceID: 1001203361
!!!NIFC-rismChildID: 990060529
!!!NIFC-islandoraID: pl-gd:66139
!!!URL-pdf-islandora: https://repozytorium.nifc.pl/islandora/object/pl-gd%3A66139/datastream/PDF/view
!!!URL-scan: https://polish.musicsources.pl/pl/lokalizacje/galeria/klocki-introligatorskie/673 @EN{Scan on Polish Music Sources Website} @PL{Skany w portalu Dziedzictwo Muzyki Polskiej w otwartym dostępie}
!!!IIIF:
!!!ONB-nifc: UWAGA: Cantus: s. 102-113, Tenore: s. 258-269, Basso: s. 414-425, Quinto: s. 736-747, Sextus: s. 624-632. Dla głosu Alto proszę skorzystać z https://pbc.gda.pl/dlibra/publication/87583/edition/79412/content, s. 25-48. Uwaga: utwory podzielone wg spisu treści dostępnych na końcu ksiąg – proszę sprawdzać sąsiednie tytuły i zwracać uwagę na liczbę głosów. Głosy Quinto i Sextus proszę umieszczać wg ambitusu (może się różnić w zależności od utworu).
!!!AIN: 2 alto 1 bass 1 soprn 2 tenor
!!!key: C:ion
**kern	**text	**kern	**text	**kern	**text	**kern	**text	**kern	**text	**kern	**text
*part6	*	*part5	*	*part4	*	*part3	*	*part2	*	*part1	*
*staff6	*	*staff5	*	*staff4	*	*staff3	*	*staff2	*	*staff1	*
*I"BASSVS	*	*I"TENOR	*	*I"SEXTVS	*	*I"ALTVS Secundus	*	*I"ALTVS	*	*I"CANTVS	*
*I'B	*	*I'T	*	*I'V 6	*	*I'A 2	*	*I'A 1	*	*I'S	*
*Ibass	*	*Itenor	*	*Itenor	*	*Ialto	*	*Ialto	*	*Isoprn	*
*ICvox	*	*ICvox	*	*ICvox	*	*ICvox	*	*ICvox	*	*ICvox	*
*clefF4	*	*clefC4	*	*clefC3	*	*clefC2	*	*clefC2	*	*clefC1	*
*k[]	*	*k[]	*	*k[]	*	*k[]	*	*k[]	*	*k[]	*
*C:ion	*	*C:ion	*	*C:ion	*	*C:ion	*	*C:ion	*	*C:ion	*
*M2/1	*	*M2/1	*	*M2/1	*	*M2/1	*	*M2/1	*	*M2/1	*
*met(C|)	*	*met(C|)	*	*met(C|)	*	*met(C|)	*	*met(C|)	*	*met(C|)	*
=1-	=1-	=1-	=1-	=1-	=1-	=1-	=1-	=1-	=1-	=1-	=1-
!	!	!	!	!LO:TX:b:i:t=Tres cantant, et quiſque gradu canit altius alto.	!	!	!	!	!	!	!
!LO:TX:a:i:t=Sex vocum.	!	!LO:TX:a:i:t=Sex vocum.	!	!LO:TX:a:i:t=Sex vocum. Canon.	!	!LO:TX:a:i:t=Reſolutio. Sex vocum.	!	!LO:TX:a:i:t=Sex vocum. Reſolutio.	!	!LO:TX:a:i:t=Sex vocum.	!
1r	.	0G	IV-	00r	.	00r	.	00r	.	00r	.
0C	IV-	.	.	.	.	.	.	.	.	.	.
=2-	=2-	=2-	=2-	=2-	=2-	=2-	=2-	=2-	=2-	=2-	=2-
.	.	1A	-ſte	.	.	.	.	.	.	.	.
1D	-ſte	1B	et	.	.	.	.	.	.	.	.
=3-	=3-	=3-	=3-	=3-	=3-	=3-	=3-	=3-	=3-	=3-	=3-
1E	et	1c	pi-	00r	.	00r	.	00r	.	0r	.
1F	pi-	2A/	-ae	.	.	.	.	.	.	.	.
.	.	2.c\	vi-	.	.	.	.	.	.	.	.
=4-	=4-	=4-	=4-	=4-	=4-	=4-	=4-	=4-	=4-	=4-	=4-
2E\	-ae	.	.	.	.	.	.	.	.	0g	IV-
.	.	4B\	.	.	.	.	.	.	.	.	.
4C/	vi-	2.e\	.	.	.	.	.	.	.	.	.
4D/	.	.	.	.	.	.	.	.	.	.	.
4E\	.	.	.	.	.	.	.	.	.	.	.
4F\	.	8d\	.	.	.	.	.	.	.	.	.
.	.	8c\	.	.	.	.	.	.	.	.	.
1G\	.	2B\	.	.	.	.	.	.	.	.	.
=5-	=5-	=5-	=5-	=5-	=5-	=5-	=5-	=5-	=5-	=5-	=5-
.	.	2c\	-ua-	0r	.	00r	.	00r	.	1a	-ſte
2F#X\	-ua-	1d	-mus	.	.	.	.	.	.	.	.
1G	-mus	.	.	.	.	.	.	.	.	1b	et
.	.	2.e\	in	.	.	.	.	.	.	.	.
=6-	=6-	=6-	=6-	=6-	=6-	=6-	=6-	=6-	=6-	=6-	=6-
1A	in	.	.	0c	IV-	.	.	.	.	2cc\	pi-
.	.	4d\	.	.	.	.	.	.	.	.	.
.	.	4c\	.	.	.	.	.	.	.	1a	-ae
!	!	!LO:SIC:v:t=custos A	!	!	!	!	!	!	!	!	!
.	.	4B\	.	.	.	.	.	.	.	.	.
!	!	!LO:LB:g=original	!	!	!	!	!	!	!	!	!
2.Fny\	hoc	4A/	.	.	.	.	.	.	.	.	.
.	.	4B\	.	.	.	.	.	.	.	.	.
.	.	1c\	.	.	.	.	.	.	.	2a\	vi-
4E\	.	.	.	.	.	.	.	.	.	.	.
=7-	=7-	=7-	=7-	=7-	=7-	=7-	=7-	=7-	=7-	=7-	=7-
*lig	*	*	*	*	*	*	*	*	*	*	*
1D	.	.	.	1d	-ſte	00r	.	0r	.	2.f/	-ua-
.	.	2B\	hoc	.	.	.	.	.	.	.	.
.	.	.	.	.	.	.	.	.	.	4g/	.
!LO:SIC:v:t=custos D	!	!	!	!	!	!	!	!	!	!	!
1C	.	2.c\	ſe-	1e	et	.	.	.	.	2a\	.
.	.	.	.	.	.	.	.	.	.	2g/	-mus
.	.	4c\	-cu-	.	.	.	.	.	.	.	.
*Xlig	*	*	*	*	*	*	*	*	*	*	*
!LO:LB:g=original	!	!	!	!	!	!	!	!	!	!	!
=8-	=8-	=8-	=8-	=8-	=8-	=8-	=8-	=8-	=8-	=8-	=8-
!	!	!	!	!LO:TX:a:t=[sc]	!	!	!	!	!	!	!
2.D/	ſe-	1A	-lo	1f	vi-	.	.	0d	IV-	0r	.
4C/	.	.	.	.	.	.	.	.	.	.	.
1BB-X	.	2r	.	2d\	.	.	.	.	.	.	.
.	.	1d\	in	2.f\	.	.	.	.	.	.	.
=9-	=9-	=9-	=9-	=9-	=9-	=9-	=9-	=9-	=9-	=9-	=9-
*lig	*	*	*	*	*	*	*	*	*	*	*
1AA	.	.	.	.	.	0r	.	1e	-ſte	2r	.
.	.	.	.	4e\	.	.	.	.	.	.	.
.	.	2c#X\	hoc	1e	.	.	.	.	.	1a	Iu-
*col	*	*	*	*	*	*	*	*	*	*	*
2.D/	.	2.d\	ſe-	.	.	.	.	1f	et	.	.
.	.	.	.	2d\	-ua-	.	.	.	.	2b\	-ſte
*Xlig	*	*	*	*	*	*	*	*	*	*	*
4D/	-cu-	4d\	-cu-	.	.	.	.	.	.	.	.
*Xcol	*	*	*	*	*	*	*	*	*	*	*
=10-	=10-	=10-	=10-	=10-	=10-	=10-	=10-	=10-	=10-	=10-	=10-
!	!	!	!	!LO:TX:a:t=[sc]	!	!	!	!	!	!	!
1C	-lo	1G	-lo	2e\	-mus	0e	IV-	1g	pi-	1cc	et
.	.	.	.	1c	in	.	.	.	.	.	.
!	!	!	!	!	!	!	!	!	!	!LO:SIC:v:t=custos a	!
1r	.	1r	.	.	.	.	.	2e/	-ae	1g	pi-
.	.	.	.	2B/	hoc	.	.	2.g\	vi-	.	.
!	!	!	!	!	!	!	!	!	!	!LO:LB:g=original	!
=11-	=11-	=11-	=11-	=11-	=11-	=11-	=11-	=11-	=11-	=11-	=11-
*	*	*	*	*lig	*	*	*	*	*	*	*
0r	.	00r	.	1A	ſe-	1f	-ſte	.	.	2a\	-ae
.	.	.	.	.	.	.	.	4f\	.	.	.
.	.	.	.	.	.	.	.	1f	.	2a\	vi-
*	*	*	*	*col	*	*	*	*	*	*	*
.	.	.	.	2.G/	.	1g	et	.	.	1b-X	-ua-
.	.	.	.	.	.	.	.	2e/	-ua-	.	.
*	*	*	*	*Xlig	*	*	*	*	*	*	*
.	.	.	.	4G/	-cu-	.	.	.	.	.	.
*	*	*	*	*Xcol	*	*	*	*	*	*	*
=12-	=12-	=12-	=12-	=12-	=12-	=12-	=12-	=12-	=12-	=12-	=12-
!	!	!	!	!LO:SIC:v:t=custos e	!	!	!	!	!	!	!
2r	.	.	.	1F	-lo	1a	pi-	2f\	-mus	2a\	-mus
1D	in	.	.	.	.	.	.	1d	in	2f/	et
!	!	!	!	!LO:LB:g=original	!	!	!	!	!	!	!
.	.	.	.	1r	.	2f\	-ae	.	.	1f	pi-
2F\	hoc	.	.	.	.	2.a\	vi-	2c/	hoc	.	.
=13-	=13-	=13-	=13-	=13-	=13-	=13-	=13-	=13-	=13-	=13-	=13-
*	*	*	*	*	*	*	*	*lig	*	*	*
2.G\	ſe-	0r	.	00r	.	.	.	1B	ſe-	2d/	-ae
.	.	.	.	.	.	4g\	.	.	.	.	.
.	.	.	.	.	.	1g	.	.	.	2dd\	vi-
4G\	-cu-	.	.	.	.	.	.	.	.	.	.
*	*	*	*	*	*	*	*	*col	*	*	*
1D	-lo	.	.	.	.	.	.	2.A/	.	1dd	-ua-
!	!	!	!	!	!	!LO:SIC:s=2f#i	!	!	!	!	!
.	.	.	.	.	.	2f\	-ua-	.	.	.	.
*	*	*	*	*	*	*	*	*Xlig	*	*	*
!	!	!	!	!	!	!	!	!LO:SIC:v:t=custos G	!	!	!
.	.	.	.	.	.	.	.	4A/	-cu-	.	.
*	*	*	*	*	*	*	*	*Xcol	*	*	*
!	!	!	!	!	!	!	!	!LO:LB:g=original	!	!	!
=14-	=14-	=14-	=14-	=14-	=14-	=14-	=14-	=14-	=14-	=14-	=14-
00r	.	2r	.	.	.	2g\	-mus	1G	-lo	1bny	-mus
.	.	1E	in	.	.	1e	in	.	.	.	.
.	.	.	.	.	.	.	.	1r	.	2cc\	in
!	!	!LO:SIC:v:t=custos A	!	!	!	!	!	!	!	!	!
.	.	2G/	hoc	.	.	2d/	hoc	.	.	1b\	hoc
!	!	!LO:LB:g=original	!	!	!	!	!	!	!	!	!
=15-	=15-	=15-	=15-	=15-	=15-	=15-	=15-	=15-	=15-	=15-	=15-
*	*	*	*	*	*	*lig	*	*	*	*	*
.	.	2.A/	ſe-	1.e	ex-	1c	ſe-	00r	.	.	.
.	.	.	.	.	.	.	.	.	.	1a	ſe-
.	.	4A/	-cu-	.	.	.	.	.	.	.	.
*	*	*	*	*	*	*col	*	*	*	*	*
.	.	2E/	-lo	.	.	2.B/	.	.	.	.	.
.	.	1E/	ex-	2e\	-pe-	.	.	.	.	2g#X/	-cu-
*	*	*	*	*	*	*Xlig	*	*	*	*	*
.	.	.	.	.	.	4B/	-cu-	.	.	.	.
*	*	*	*	*	*	*Xcol	*	*	*	*	*
=16-	=16-	=16-	=16-	=16-	=16-	=16-	=16-	=16-	=16-	=16-	=16-
1.AA	ex-	.	.	2.c/	-ƈtan-	1A	-lo	.	.	00a	-lo
.	.	2E/	-pe-	.	.	.	.	.	.	.	.
.	.	.	.	4d\	.	.	.	.	.	.	.
.	.	2.cny\	-ƈtan-	1e	.	1r	.	.	.	.	.
2AA/	-pe-	.	.	.	.	.	.	.	.	.	.
.	.	4B\	.	.	.	.	.	.	.	.	.
=17-	=17-	=17-	=17-	=17-	=17-	=17-	=17-	=17-	=17-	=17-	=17-
!LO:SIC:v:t=custos D	!	!	!	!	!	!	!	!	!	!	!
1D	-ƈtan-	1A	.	1.d	-tes	00r	.	1.f	ex-	.	.
!LO:LB:g=original	!	!	!	!	!	!	!	!	!	!	!
2D/	-tes	1A	-tes	.	.	.	.	.	.	.	.
2F\	be-	.	.	2c/	be-	.	.	2f\	-pe-	.	.
=18-	=18-	=18-	=18-	=18-	=18-	=18-	=18-	=18-	=18-	=18-	=18-
2G\	-a-	2r	.	2B/	-a-	.	.	2.d/	-ƈtan-	00r	.
4F\	.	1A	Ex-	2A/	-tam	.	.	.	.	.	.
4E\	.	.	.	.	.	.	.	4e/	.	.	.
1D	.	.	.	1d	ſpem	.	.	1f	.	.	.
.	.	2A/	-pe-	.	.	.	.	.	.	.	.
=19-	=19-	=19-	=19-	=19-	=19-	=19-	=19-	=19-	=19-	=19-	=19-
1C	-tam	1c	-ƈtan-	00r	.	1.g	ex-	1.e	-tes	.	.
1G	ſpem	2.B\	-tes	.	.	.	.	.	.	.	.
!	!	!	!	!	!	!LO:SIC:v:t=custos e	!	!	!	!	!
.	.	.	.	.	.	2g\	-pe-	2d/	be-	.	.
.	.	4G/	.	.	.	.	.	.	.	.	.
!	!	!	!	!	!	!LO:LB:g=original	!	!	!	!	!
=20-	=20-	=20-	=20-	=20-	=20-	=20-	=20-	=20-	=20-	=20-	=20-
2r	.	2A/	.	.	.	2.e/	-ƈtan-	2c/	-a-	2r	.
*	*ij	*	*	*	*	*	*	*	*	*	*
1E	ex-	1G	be-	.	.	.	.	2B/	-tam	1b	ex-
.	.	.	.	.	.	4f\	.	.	.	.	.
.	.	.	.	.	.	1g	.	1e	ſpem	.	.
!	!	!	!	!	!	!	!	!	!	!LO:SIC:v:t=custos dd	!
2E\	-pe-	1c\	-a-	.	.	.	.	.	.	2cc\	-pe-
!	!	!	!	!	!	!	!	!	!	!LO:LB:g=original	!
=21-	=21-	=21-	=21-	=21-	=21-	=21-	=21-	=21-	=21-	=21-	=21-
1D	-ƈtan-	.	.	0r	.	1.f	-tes	00r	.	1dd	-ƈtan-
.	.	2B\	-tam	.	.	.	.	.	.	.	.
2C/	-tes	1c	ſpem	.	.	.	.	.	.	1.gny	-tes
2C/	be-	.	.	.	.	2e/	be-	.	.	.	.
=22-	=22-	=22-	=22-	=22-	=22-	=22-	=22-	=22-	=22-	=22-	=22-
2G\	-a-	2r	.	1r	.	2d/	-a-	.	.	.	.
2A\	-tam	1A	Ex-	.	.	2c/	-tam	.	.	2e/	be-
1D	ſpem	.	.	2r	.	1f	ſpem	.	.	2.d/	-a-
*	*Xij	*	*	*	*	*	*	*	*	*	*
.	.	2A/	-pe-	1A/	Ex-	.	.	.	.	.	.
.	.	.	.	.	.	.	.	.	.	8c/	.
.	.	.	.	.	.	.	.	.	.	8d/	.
=23-	=23-	=23-	=23-	=23-	=23-	=23-	=23-	=23-	=23-	=23-	=23-
1r	.	1c	-ƈtan-	.	.	00r	.	0r	.	2e/	.
.	.	.	.	2F/	-pe-	.	.	.	.	2f/	-tam
2r	.	2.A/	-tes	2.c/	-ƈtan-	.	.	.	.	0.e	ſpem
1AA/	Ex-	.	.	.	.	.	.	.	.	.	.
!	!	!LO:SIC:v:t=custos c	!	!LO:SIC:v:t=custos A	!	!	!	!	!	!	!
.	.	4B\	.	4B/	.	.	.	.	.	.	.
!	!	!LO:LB:g=original	!	!LO:LB:g=original	!	!	!	!	!	!	!
=24-	=24-	=24-	=24-	=24-	=24-	=24-	=24-	=24-	=24-	=24-	=24-
.	.	1c	.	4A/	.	.	.	1r	.	.	.
.	.	.	.	4G/	.	.	.	.	.	.	.
2AA/	-pe-	.	.	2A/	.	.	.	.	.	.	.
1E	-ƈtan-	2.B\	be-	1G	-tes	.	.	2r	.	.	.
.	.	.	.	.	.	.	.	1B/	Ex-	.	.
.	.	4A/	.	.	.	.	.	.	.	.	.
=25-	=25-	=25-	=25-	=25-	=25-	=25-	=25-	=25-	=25-	=25-	=25-
2E\	-tes	4G/	.	2r	.	0r	.	.	.	0r	.
.	.	4A/	.	.	.	.	.	.	.	.	.
*	*	*lig	*	*	*	*	*	*	*	*	*
!	!	!	!	!	!	!	!	!LO:SIC:v:t=custos d	!	!	!
2E\	be-	1B	.	2e\	be-	.	.	2G/	-pe-	.	.
!	!	!	!	!	!	!	!	!LO:LB:g=original	!	!	!
1D	-a-	.	.	1f	-a-	.	.	2.d/	-ƈtan-	.	.
.	.	1A\	.	.	.	.	.	.	.	.	.
.	.	.	.	.	.	.	.	4c/	.	.	.
*	*	*Xlig	*	*	*	*	*	*	*	*	*
=26-	=26-	=26-	=26-	=26-	=26-	=26-	=26-	=26-	=26-	=26-	=26-
!LO:SIC:v:t=custos AA	!	!	!	!	!	!	!	!	!	!	!
1E	-tam	.	.	1e	-tam	1r	.	4B/	.	2r	.
.	.	.	.	.	.	.	.	4A/	.	.	.
.	.	2G#X/	.	.	.	.	.	2B/	.	1e	Ex-
!LO:LB:g=original	!	!	!	!	!	!	!	!	!	!	!
1AA	ſpem	2.A/	-a-	1c	ſpem	2r	.	1A	-tes	.	.
.	.	.	.	.	.	1c/	Ex-	.	.	2e/	-pe-
.	.	8Gny/	.	.	.	.	.	.	.	.	.
.	.	8F/	.	.	.	.	.	.	.	.	.
=27-	=27-	=27-	=27-	=27-	=27-	=27-	=27-	=27-	=27-	=27-	=27-
1r	.	2E/	.	0r	.	.	.	2r	.	2g/	-ƈtan-
.	.	2F/	-ta(m)	.	.	2A/	-pe-	2f\	be-	1c	-tes
2r	.	1C	ſpem	.	.	2.e/	-ƈtan-	1g	-a-	.	.
2C/	be-	.	.	.	.	.	.	.	.	2cc\	be-
.	.	.	.	.	.	4d/	.	.	.	.	.
=28-	=28-	=28-	=28-	=28-	=28-	=28-	=28-	=28-	=28-	=28-	=28-
1F	-a-	0r	.	1r	.	4c/	.	1f	-tam	2a\	-a-
.	.	.	.	.	.	4B/	.	.	.	.	.
.	.	.	.	.	.	2c/	.	.	.	2a\	-tam
1G	-tam	.	.	2r	.	1B	-tes	1d	ſpem	0g	ſpem
.	.	.	.	2d\	be-	.	.	.	.	.	.
=29-	=29-	=29-	=29-	=29-	=29-	=29-	=29-	=29-	=29-	=29-	=29-
*	*	*	*	*lig	*	*	*	*	*	*	*
1C	ſpem	2r	.	1e	-a-	2r	.	0r	.	.	.
.	.	2c\	be-	.	.	2g\	be-	.	.	.	.
*	*	*	*	*col	*	*	*	*	*	*	*
1r	.	1F	-a-	2.f\	.	1a	-a-	.	.	2r	.
.	.	.	.	.	.	.	.	.	.	2cc\	be-
*	*	*	*	*Xlig	*	*	*	*	*	*	*
.	.	.	.	8e\	.	.	.	.	.	.	.
.	.	.	.	8d\	.	.	.	.	.	.	.
*	*	*	*	*Xcol	*	*	*	*	*	*	*
=30-	=30-	=30-	=30-	=30-	=30-	=30-	=30-	=30-	=30-	=30-	=30-
*	*	*lig	*	*	*	*	*	*	*	*	*
0r	.	1G	-tam	2e\	.	1g	-tam	1r	.	2b\	-a-
.	.	.	.	1d	.	.	.	.	.	2b\	-tam
.	.	1A	.	.	.	1e	ſpem	2r	.	2a\	ſpem
.	.	.	.	2c#X/	-tam	.	.	2e/	be-	1a\	et
*	*	*Xlig	*	*	*	*	*	*	*	*	*
=31-	=31-	=31-	=31-	=31-	=31-	=31-	=31-	=31-	=31-	=31-	=31-
*	*	*	*	*	*	*	*	*lig	*	*	*
1r	.	2D/	ſpem	1d	ſpem	0r	.	1f	-a-	.	.
!	!	!	!	!	!	!	!	!	!	!LO:SIC:v:t=custos cc	!
.	.	2d\	et	.	.	.	.	.	.	2a\	ad-
*	*	*	*	*	*	*	*	*col	*	*	*
!	!	!	!	!	!	!	!	!	!	!LO:LB:g=original	!
1C	et	1e	ad-	1r	.	.	.	2.g\	.	1.cc	-uen-
*	*	*	*	*	*	*	*	*Xlig	*	*	*
.	.	.	.	.	.	.	.	8f\	.	.	.
.	.	.	.	.	.	.	.	8e\	.	.	.
*	*	*	*	*	*	*	*	*Xcol	*	*	*
=32-	=32-	=32-	=32-	=32-	=32-	=32-	=32-	=32-	=32-	=32-	=32-
1AA	ad-	1c	-uen-	00r	.	1r	.	2f\	.	.	.
.	.	.	.	.	.	.	.	1e	.	2a\	-tum
1D	-uen-	1A	-tum	.	.	2r	.	.	.	1r	.
.	.	.	.	.	.	2f\	be-	2d/	-tam	.	.
=33-	=33-	=33-	=33-	=33-	=33-	=33-	=33-	=33-	=33-	=33-	=33-
*	*	*	*	*	*	*lig	*	*	*	*	*
1C	-tum	2.c\	glo-	.	.	1g	-a-	1e	ſpem	1.cc	et
.	.	4c\	-ri-	.	.	.	.	.	.	.	.
*	*	*	*	*	*	*col	*	*	*	*	*
!	!	!LO:SIC:v:t=custos B	!	!	!	!	!	!	!	!	!
2.F\	glo-	1A	-ae	.	.	2.a\	.	1r	.	.	.
.	.	.	.	.	.	.	.	.	.	2a\	ad-
*	*	*	*	*	*	*Xlig	*	*	*	*	*
4F\	-ri-	.	.	.	.	8g\	.	.	.	.	.
!	!	!	!	!	!	!LO:SIC:v:t=custos g	!	!	!	!	!
.	.	.	.	.	.	8f\	.	.	.	.	.
*	*	*	*	*	*	*Xcol	*	*	*	*	*
!	!	!LO:LB:g=original	!	!	!	!LO:LB:g=original	!	!	!	!	!
=34-	=34-	=34-	=34-	=34-	=34-	=34-	=34-	=34-	=34-	=34-	=34-
*lig	*	*	*	*	*	*	*	*	*	*	*
1BB-X	-ae	2.B-X\	ma-	1r	.	2g\	.	00r	.	1dd	-uen-
.	.	.	.	.	.	1f	.	.	.	.	.
.	.	4A/	-gni	.	.	.	.	.	.	.	.
1C	.	1G	De-	1cny	et	.	.	.	.	2cc\	-tum
.	.	.	.	.	.	2e/	-ta(m)	.	.	2.cc\	glo-
*Xlig	*	*	*	*	*	*	*	*	*	*	*
=35-	=35-	=35-	=35-	=35-	=35-	=35-	=35-	=35-	=35-	=35-	=35-
2r	.	2.F/	-i	1A	ad-	1f	ſpem	.	.	.	.
.	.	.	.	.	.	.	.	.	.	4cc\	-ri-
*	*ij	*	*	*	*	*	*	*	*	*	*
1F	et	.	.	.	.	.	.	.	.	2a\	-ae
.	.	4G/	.	.	.	.	.	.	.	.	.
!	!	!	!	!LO:SIC:v:t=custos c	!	!	!	!	!	!	!
.	.	1A	.	1d	-uen-	1r	.	.	.	2f/	ma-
2D/	ad-	.	.	.	.	.	.	.	.	2f/	-gni
!	!	!	!	!LO:LB:g=original	!	!	!	!	!	!	!
=36-	=36-	=36-	=36-	=36-	=36-	=36-	=36-	=36-	=36-	=36-	=36-
1A	-uen-	0r	.	1c	-tum	00r	.	1r	.	4e/	De-
.	.	.	.	.	.	.	.	.	.	4d/	.
.	.	.	.	.	.	.	.	.	.	4e/	.
.	.	.	.	.	.	.	.	.	.	4f/	.
2G\	-tum	.	.	2.B/	glo-	.	.	1d	et	1g	.
2.G\	glo-	.	.	.	.	.	.	.	.	.	.
.	.	.	.	4B/	-ri-	.	.	.	.	.	.
=37-	=37-	=37-	=37-	=37-	=37-	=37-	=37-	=37-	=37-	=37-	=37-
.	.	2r	.	2d\	-ae	.	.	1B	ad-	0g	-i
4F\	.	.	.	.	.	.	.	.	.	.	.
4E\	.	1G	et	1e	ma-	.	.	.	.	.	.
!LO:SIC:v:t=custos C	!	!	!	!	!	!	!	!	!	!	!
4D/	.	.	.	.	.	.	.	.	.	.	.
!LO:LB:g=original	!	!	!	!	!	!	!	!LO:SIC:v:t=custos d	!	!	!
2.C/	.	.	.	.	.	.	.	1e	-uen-	.	.
.	.	2E/	ad-	1c\	-gni	.	.	.	.	.	.
4C/	-ri-	.	.	.	.	.	.	.	.	.	.
!	!	!	!	!	!	!	!	!LO:LB:g=original	!	!	!
=38-	=38-	=38-	=38-	=38-	=38-	=38-	=38-	=38-	=38-	=38-	=38-
1GG	-ae	1G	-uen-	.	.	1r	.	1d	-tum	2r	.
*	*Xij	*	*	*	*	*	*	*	*	*	*
.	.	.	.	2B/	De-	.	.	.	.	1g	et
2r	.	1C	-tum	0c	-i	1e	et	2.c/	glo-	.	.
1C/	et	.	.	.	.	.	.	.	.	2g/	ad-
.	.	.	.	.	.	.	.	4c/	-ri-	.	.
=39-	=39-	=39-	=39-	=39-	=39-	=39-	=39-	=39-	=39-	=39-	=39-
.	.	2r	.	.	.	1c	ad-	2e/	-ae	1cc	-uen-
*	*	*	*ij	*	*	*	*	*	*	*	*
2AA/	ad-	1A	et	.	.	.	.	1f	ma-	.	.
1D	-uen-	.	.	1r	.	1f	-uen-	.	.	0a	-tum
.	.	2D/	ad-	.	.	.	.	1d/	-gni	.	.
=40-	=40-	=40-	=40-	=40-	=40-	=40-	=40-	=40-	=40-	=40-	=40-
1AA	-tum	1A	-uen-	00r	.	1e	-tum	.	.	.	.
!	!	!	!	!	!	!	!	!LO:SIC:s=2c#i	!	!	!
.	.	.	.	.	.	.	.	2c/	De-	.	.
2r	.	1.D	-tum	.	.	2.d/	glo-	0d	-i	2.f#X/	glo-
*	*	*	*Xij	*	*	*	*	*	*	*	*
2.A\	glo-	.	.	.	.	.	.	.	.	.	.
!	!	!	!	!	!	!	!	!	!	!LO:SIC:v:t=custos a	!
.	.	.	.	.	.	4d/	-ri-	.	.	4f#/	-ri-
!	!	!	!	!	!	!	!	!	!	!LO:LB:g=original	!
=41-	=41-	=41-	=41-	=41-	=41-	=41-	=41-	=41-	=41-	=41-	=41-
!	!	!	!	!	!	!LO:SIC:s=2f#i	!	!	!	!	!
.	.	.	.	.	.	2f\	-ae	.	.	2a\	-ae
4A\	-ri-	.	.	.	.	.	.	.	.	.	.
2G\	-ae	2.d\	glo-	.	.	1g	ma-	.	.	1b	ma-
2G\	ma-	.	.	.	.	.	.	1r	.	.	.
.	.	4d\	-ri-	.	.	.	.	.	.	.	.
2A\	-gni	2c\	-ae	.	.	1e\	-gni	.	.	1cc\	-gni
=42-	=42-	=42-	=42-	=42-	=42-	=42-	=42-	=42-	=42-	=42-	=42-
1F	De-	2A/	ma-	0r	.	.	.	00r	.	.	.
.	.	2A/	-gni	.	.	2d/	De-	.	.	2.a\	De-
1E	-i	1Bny	De-	.	.	0e	-i	.	.	.	.
.	.	.	.	.	.	.	.	.	.	4g#X/	.
.	.	.	.	.	.	.	.	.	.	2g#/	.
=43-	=43-	=43-	=43-	=43-	=43-	=43-	=43-	=43-	=43-	=43-	=43-
2r	.	4A/	.	1e	et	.	.	.	.	0a	-i
.	.	4B\	.	.	.	.	.	.	.	.	.
2.A\	ma-	4c\	.	.	.	.	.	.	.	.	.
!	!	!LO:SIC:v:t=custos e	!	!	!	!	!	!	!	!	!
.	.	4d\	.	.	.	.	.	.	.	.	.
!	!	!LO:LB:g=original	!	!	!	!	!	!	!	!	!
.	.	2e\	.	1c	ad-	1r	.	.	.	.	.
4G\	.	.	.	.	.	.	.	.	.	.	.
4F\	.	2.f\	.	.	.	.	.	.	.	.	.
4E\	.	.	.	.	.	.	.	.	.	.	.
=44-	=44-	=44-	=44-	=44-	=44-	=44-	=44-	=44-	=44-	=44-	=44-
2D/	.	.	.	1f	-uen-	00r	.	0r	.	2r	.
.	.	4e\	.	.	.	.	.	.	.	.	.
2D/	-gni	1d	.	.	.	.	.	.	.	1a	et
1A	De-	.	.	1e	-tum	.	.	.	.	.	.
.	.	2c#X\	.	.	.	.	.	.	.	2a\	ad-
=45-	=45-	=45-	=45-	=45-	=45-	=45-	=45-	=45-	=45-	=45-	=45-
!LO:SIC:v:t=custos G	!	!	!	!	!	!	!	!	!	!	!
1D	-i	1d	-i	2.d\	glo-	.	.	1f	et	1a	-uen-
.	.	.	.	4d\	-ri-	.	.	.	.	.	.
!LO:LB:g=original	!	!	!	!	!	!	!	!	!	!	!
2r	.	1r	.	2f\	-ae	.	.	1d	ad-	2a\	-tum
2.G\	glo-	.	.	1g\	ma-	.	.	.	.	2.b\	glo-
=46-	=46-	=46-	=46-	=46-	=46-	=46-	=46-	=46-	=46-	=46-	=46-
.	.	0r	.	.	.	0r	.	1g	-uen-	.	.
4G\	-ri-	.	.	.	.	.	.	.	.	4b\	-ri-
2G\	-e	.	.	1e	-gni	.	.	.	.	2b\	-ae
2A\	ma-	.	.	.	.	.	.	1f	-tum	2cc\	ma-
2B\	-gni	.	.	2d\	De-	.	.	.	.	4b\	.
.	.	.	.	.	.	.	.	.	.	4a\	.
=47-	=47-	=47-	=47-	=47-	=47-	=47-	=47-	=47-	=47-	=47-	=47-
1c	De-	2r	.	1e;<	-i	1g	et	2.e/	glo-	4gny/	.
.	.	.	.	.	.	.	.	.	.	4fny/	.
.	.	2.cny\	glo-	.	.	.	.	.	.	1e	.
.	.	.	.	.	.	.	.	4e/	-ri-	.	.
2C/	-i	.	.	2r	.	1e	ad-	2g\	-ae	.	.
.	.	4B\	.	.	.	.	.	.	.	.	.
1c\	glo-	4A/	.	1c\	ma-	.	.	1a\	ma-	2c/	-gni
.	.	4G/	.	.	.	.	.	.	.	.	.
=48-	=48-	=48-	=48-	=48-	=48-	=48-	=48-	=48-	=48-	=48-	=48-
.	.	2.F/	.	.	.	1a	-uen-	.	.	0cc	De-
!	!	!	!	!LO:SIC:v:t=custos c	!	!	!	!	!	!	!
2F\	-ri-	.	.	2c/	-gni	.	.	1f	-gni	.	.
.	.	4F/	-ri-	.	.	.	.	.	.	.	.
!	!	!	!	!LO:LB:g=original	!	!	!	!	!	!	!
1C	-ae	1G	-ae	1c	De-	1g	-tu(m)	.	.	.	.
.	.	.	.	.	.	.	.	2e/	De-	.	.
=49-	=49-	=49-	=49-	=49-	=49-	=49-	=49-	=49-	=49-	=49-	=49-
*	*	*lig	*	*	*	*	*	*	*	*	*
!	!	!	!	!	!	!	!	!	!	!LO:SIC:v:t=custos dd	!
1F	ma-	1A	ma-	1c;<	-i	2.f\	glo-	1f	-i	1a	-i
.	.	.	.	.	.	4f\	-ri-	.	.	.	.
*	*	*	*	*	*ij	*	*	*	*	*	*
!	!	!	!	!	!	!	!	!	!	!LO:LB:g=original	!
4D/	-gni	1F	.	1d	ma-	2a\	-ae	2r	.	2r	.
4C/	.	.	.	.	.	.	.	.	.	.	.
!	!	!	!	!	!	!LO:SIC:s=1b-i	!	!	!	!	!
4BB-X/	.	.	.	.	.	1b\	ma-	1d/	ma-	1dd\	ma-
4AA/	.	.	.	.	.	.	.	.	.	.	.
*	*	*Xlig	*	*	*	*	*	*	*	*	*
=50-	=50-	=50-	=50-	=50-	=50-	=50-	=50-	=50-	=50-	=50-	=50-
1GG	.	1G	-gni	1B-X	-gni	.	.	.	.	.	.
.	.	.	.	.	.	1g	-gni	2d/	-gni	2dd\	-gni
1D	De-	2A/	De-	1A	De-	.	.	1d	De-	1dd	De-
.	.	2D/	.	.	.	2f#X\	De-	.	.	.	.
=51-	=51-	=51-	=51-	=51-	=51-	=51-	=51-	=51-	=51-	=51-	=51-
0GGl	-i.	0Dl	-i.	0Gl	-i	0gl	-i.	0dl	-i.	0bl	-i.
*	*	*	*	*	*Xij	*	*	*	*	*	*
==	==	==	==	==	==	==	==	==	==	==	==
*-	*-	*-	*-	*-	*-	*-	*-	*-	*-	*-	*-
!!!system-decoration: [(*)]
!!!RDF**kern: < = below
!!!RDF**kern: l = terminal long
!!!ENC: Mateusz Solarz
!!!END: 2022-07-14
!!!ENC: Andrzej Kubiczek
!!!END: 2022-08-10
